src/components/Icon/utils/svgsOptimized/sort-ascending.svg

<svg width="24" height="24" viewBox="0 0 24 24"  xmlns="http://www.w3.org/2000/svg">
<path d="M16 7.76501H5C4.59003 7.76501 4.25 7.42502 4.25 7.01501C4.25 6.60501 4.59003 6.26501 5 6.26501H16C16.41 6.26501 16.75 6.60501 16.75 7.01501C16.75 7.42502 16.41 7.76501 16 7.76501Z" />
<path d="M12 11.255C12.41 11.255 12.75 11.595 12.75 12.005C12.75 12.415 12.41 12.755 12 12.755H5C4.59003 12.755 4.25 12.415 4.25 12.005C4.25 11.595 4.59003 11.255 5 11.255H12Z" />
<path d="M10 16.245H5C4.59003 16.245 4.25 16.585 4.25 16.995C4.25 17.405 4.59003 17.745 5 17.745H10C10.41 17.745 10.75 17.405 10.75 16.995C10.75 16.585 10.41 16.245 10 16.245Z" />
<path d="M18.47 15.465C18.76 15.175 19.24 15.175 19.53 15.465C19.82 15.755 19.82 16.235 19.53 16.525L16.53 19.525C16.46 19.595 16.38 19.645 16.29 19.685C16.2 19.725 16.1 19.745 16 19.745C15.9 19.745 15.8 19.725 15.71 19.685C15.62 19.655 15.54 19.595 15.47 19.525L12.47 16.525C12.18 16.235 12.18 15.755 12.47 15.465C12.76 15.175 13.24 15.175 13.53 15.465L15.25 17.185V10.995C15.25 10.585 15.59 10.245 16 10.245C16.41 10.245 16.75 10.585 16.75 10.995V17.185L18.47 15.465Z" />
</svg>

<?xml version="1.0" encoding="utf-8"?><svg width="24" height="24" xmlns="http://www.w3.org/2000/svg" viewBox="0 0 24 24"><path d="M16 7.765H5c-.41 0-.75-.34-.75-.75s.34-.75.75-.75h11c.41 0 .75.34.75.75s-.34.75-.75.75Zm-4 3.49c.41 0 .75.34.75.75s-.34.75-.75.75H5c-.41 0-.75-.34-.75-.75s.34-.75.75-.75h7Zm-2 4.99H5c-.41 0-.75.34-.75.75s.34.75.75.75h5c.41 0 .75-.34.75-.75s-.34-.75-.75-.75Zm8.47-.78c.29-.29.77-.29 1.06 0 .29.29.29.77 0 1.06l-3 3a.776.776 0 0 1-.53.22c-.1 0-.2-.02-.29-.06a.633.633 0 0 1-.24-.16l-3-3a.754.754 0 0 1 0-1.06c.29-.29.77-.29 1.06 0l1.72 1.72v-6.19c0-.41.34-.75.75-.75s.75.34.75.75v6.19l1.72-1.72Z"/></svg>
